packages/core/src/svgs/tokens/mono/WITCH.svg

<svg width="24" height="24" viewBox="0 0 24 24" fill="none" xmlns="http://www.w3.org/2000/svg">
<path fill-rule="evenodd" clip-rule="evenodd" d="M21.0424 4.18223C21.2325 4.25542 21.4055 4.36668 21.5511 4.50918C21.6965 4.65167 21.8115 4.82241 21.8886 5.01089C21.9657 5.19937 22.0036 5.40162 21.9997 5.60524C21.9959 5.80887 21.9506 6.00956 21.8664 6.19501L16.1575 18.4306C16.1007 18.6709 15.987 18.894 15.8263 19.0813C15.6655 19.2687 15.4624 19.4148 15.2336 19.5077C14.8465 19.6734 14.4106 19.6845 14.0155 19.539C13.6204 19.3934 13.2961 19.1021 13.1089 18.7249L7.29423 6.19501C7.21006 6.00956 7.16467 5.80887 7.16086 5.60524C7.15704 5.40162 7.19486 5.19937 7.27202 5.01089C7.34917 4.82241 7.46403 4.65167 7.60954 4.50918C7.75504 4.36668 7.92813 4.25542 8.11818 4.18223C8.33006 4.09394 8.54781 4.05274 8.75968 4.05274H15.1218C16.0045 4.05274 16.7108 4.7119 16.7108 5.52408C16.7108 6.33627 16.0045 6.99543 15.1218 6.99543H11.1962L14.5862 14.3051L18.9177 4.96498C19.1049 4.5892 19.4282 4.29898 19.822 4.15351C20.2157 4.00804 20.6501 4.01832 21.0365 4.18223H21.0424ZM10.2546 4.96498C10.1957 4.84726 10.131 4.74133 10.0486 4.64128H15.1218C15.6515 4.64128 16.1222 5.03561 16.1222 5.52408C16.1222 6.01256 15.6515 6.40689 15.1218 6.40689H10.9197L10.2546 4.96498ZM14.9393 15.0701L19.5063 5.21216C19.6184 4.98506 19.8134 4.80961 20.051 4.722C20.2887 4.6344 20.5508 4.64132 20.7834 4.74133C21.2719 4.94732 21.4897 5.48878 21.2778 5.94783L15.9811 17.3066L14.9393 15.0701ZM8.3889 4.74133C8.87739 4.53534 9.44823 4.74722 9.66012 5.21216L15.469 17.7421C15.6868 18.2071 15.469 18.7426 14.9746 18.9486C14.4861 19.1546 13.9153 18.9427 13.6975 18.4777L7.88865 5.94783C7.67677 5.48878 7.89453 4.94732 8.3889 4.74133ZM2.13277 6.50106C2.04875 6.31523 2.00364 6.11418 2.00021 5.91028C1.99679 5.70637 2.03512 5.50393 2.11284 5.31538C2.19058 5.12684 2.30607 4.9562 2.4522 4.81396C2.59834 4.67171 2.77203 4.56087 2.96261 4.48826C3.3497 4.3226 3.78553 4.31141 4.18063 4.45697C4.57573 4.60252 4.90012 4.8938 5.08722 5.27101L10.896 17.801C10.9802 17.9864 11.0257 18.1871 11.0294 18.3907C11.0332 18.5943 10.9955 18.7966 10.9183 18.9851C10.8411 19.1735 10.7263 19.3442 10.5807 19.4868C10.4353 19.6293 10.2622 19.7406 10.0721 19.8138C9.68429 19.9812 9.24709 19.9932 8.85063 19.8477C8.45416 19.702 8.12876 19.4096 7.94162 19.031L2.13277 6.49517V6.50106ZM3.22157 5.04737C3.71004 4.84139 4.28093 5.05325 4.49869 5.51819L10.3075 18.0482C10.5194 18.5072 10.3017 19.0486 9.80733 19.2546C9.31873 19.4606 8.74791 19.2488 8.53604 18.7838L2.7272 6.25387C2.50944 5.78893 2.7272 5.25336 3.22157 5.04737Z" fill="white"/>
</svg>

<svg xmlns="http://www.w3.org/2000/svg" width="24" height="24" fill="none" viewBox="0 0 24 24">
    <path fill="#fff" fill-rule="evenodd" d="M21.042 4.182a1.495 1.495 0 0 1 .824 2.013l-5.709 12.236a1.55 1.55 0 0 1-.923 1.077 1.65 1.65 0 0 1-2.125-.783L7.294 6.195a1.495 1.495 0 0 1 .824-2.013c.212-.088.43-.13.642-.13h6.362c.883 0 1.589.66 1.589 1.472s-.706 1.471-1.59 1.471h-3.925l3.39 7.31 4.332-9.34a1.65 1.65 0 0 1 2.119-.783zm-10.787.783a1.7 1.7 0 0 0-.206-.324h5.073c.53 0 1 .395 1 .883 0 .489-.47.883-1 .883H10.92zm4.684 10.105 4.567-9.858a.99.99 0 0 1 1.277-.47c.489.205.707.747.495 1.206L15.98 17.307zM8.39 4.741c.488-.206 1.06.006 1.271.471l5.809 12.53c.218.465 0 1-.494 1.207-.489.206-1.06-.006-1.277-.471l-5.81-12.53c-.211-.46.007-1 .5-1.207m-6.256 1.76a1.495 1.495 0 0 1 .83-2.013 1.65 1.65 0 0 1 2.124.783l5.809 12.53a1.49 1.49 0 0 1-.315 1.686 1.5 1.5 0 0 1-.509.327 1.65 1.65 0 0 1-2.13-.783L2.132 6.495zm1.089-1.454c.488-.206 1.059.006 1.277.471l5.809 12.53c.211.46-.006 1-.5 1.207-.49.206-1.06-.006-1.272-.471L2.727 6.254c-.218-.465 0-1 .495-1.207" clip-rule="evenodd"/>
</svg>
